build/img/star.svg

<svg width="20" height="20" viewBox="0 0 20 20" fill="none" xmlns="http://www.w3.org/2000/svg">
  <path d="M4.03519 12.783C3.99218 12.7136 3.12792 11.8112 2.11898 10.7821C0.492155 9.12016 0.265338 8.87923 0.15193 8.64648C-0.223491 7.87062 0.124555 6.90284 0.89104 6.60066C1.024 6.54758 1.98211 6.38424 3.6324 6.13106C5.09497 5.91056 6.21733 5.72272 6.28381 5.68597L4.03519 12.783ZM4.03519 12.783C4.08603 12.8688 4.10949 12.9709 4.10558 13.1138L4.03519 12.783ZM3.70755 6.62538C4.44024 6.51492 5.08915 6.41242 5.56434 6.33272C5.80158 6.29293 5.99805 6.2584 6.14087 6.23115C6.21174 6.21762 6.2734 6.20514 6.32176 6.19413C6.3455 6.18872 6.37094 6.18257 6.39484 6.17583C6.39518 6.17574 6.39566 6.1756 6.39628 6.17543C6.40782 6.17227 6.46696 6.15603 6.52571 6.12355L6.52708 6.1228C6.65453 6.05182 6.79632 5.92197 6.88069 5.80182L6.885 5.79568L6.88913 5.78942C6.91263 5.75373 6.93905 5.70174 6.95332 5.67366L6.95524 5.66989C6.97649 5.62812 7.00415 5.5725 7.03701 5.50566C7.10292 5.37157 7.1925 5.18667 7.29908 4.96485C7.51235 4.521 7.79537 3.92584 8.09683 3.28607M3.70755 6.62538L7.35648 18.1722C8.39921 17.5973 8.95901 17.2898 9.28246 17.1275C9.44245 17.0473 9.56877 16.99 9.67922 16.9548C9.81134 16.9127 9.90984 16.9055 9.99891 16.9055C10.0881 16.9055 10.1866 16.9127 10.3187 16.955C10.4288 16.9903 10.5547 17.0475 10.7142 17.1277C11.0368 17.2898 11.5964 17.5972 12.6407 18.1719C13.2421 18.5022 13.8128 18.8128 14.2473 19.0468C14.4647 19.1639 14.6471 19.2613 14.7819 19.3321C14.8494 19.3676 14.9037 19.3958 14.9439 19.4163C14.9731 19.431 14.989 19.4388 14.9955 19.4419C14.9994 19.4439 14.9999 19.4441 14.9978 19.4432L14.8051 19.9046M3.70755 6.62538C2.88371 6.75177 2.23514 6.85536 1.77704 6.93373C1.54756 6.973 1.36884 7.00543 1.24101 7.03087C1.15635 7.04773 1.10886 7.05882 1.08689 7.06395C1.06981 7.06794 1.06815 7.06833 1.07644 7.06502L1.07442 7.06582C0.602261 7.25196 0.342226 7.89096 0.601725 8.42811C0.623573 8.47285 0.664315 8.54563 0.935317 8.8392C1.20335 9.12955 1.66047 9.59893 2.47629 10.4324C2.98167 10.9478 3.45126 11.432 3.80042 11.7966C3.97485 11.9787 4.12029 12.1321 4.22545 12.2451C4.2778 12.3013 4.32184 12.3493 4.35507 12.3866C4.37151 12.405 4.38733 12.4231 4.401 12.4394L4.40203 12.4406C4.40997 12.4501 4.43708 12.4823 4.46021 12.5197L4.46029 12.5196L4.46529 12.528C4.57754 12.7174 4.61107 12.9201 4.6054 13.1275L4.60541 13.1275L4.60529 13.1309C4.60314 13.1938 4.58482 13.3269 4.56544 13.4628C4.54337 13.6175 4.51213 13.8259 4.47412 14.0725C4.39804 14.5661 4.29413 15.2171 4.18049 15.9065C4.06728 16.5954 3.96394 17.2418 3.889 17.7286C3.85149 17.9723 3.82131 18.1745 3.80061 18.3216C3.79022 18.3954 3.78251 18.4533 3.7775 18.4947C3.77353 18.5274 3.77255 18.5399 3.77241 18.5399C3.77231 18.5399 3.77262 18.5339 3.77262 18.5244C3.77262 19.2053 4.45511 19.6472 4.98681 19.4446M3.70755 6.62538L4.98681 19.4446M8.09683 3.28607C8.09689 3.28594 8.09695 3.2858 8.09701 3.28567L7.64478 3.07258L8.09674 3.28624C8.09677 3.28618 8.0968 3.28613 8.09683 3.28607ZM8.09683 3.28607C8.39914 2.64658 8.68752 2.04638 8.90875 1.594C9.01948 1.36759 9.11274 1.17954 9.18221 1.04262C9.23095 0.946571 9.26069 0.890577 9.27495 0.863722C9.28227 0.849947 9.28552 0.843836 9.28516 0.843918M9.28516 0.843918C9.28388 0.845695 9.28261 0.847469 9.28136 0.849241L8.87271 0.561266L9.28428 0.845053C9.28478 0.844324 9.28508 0.843937 9.28516 0.843918ZM9.28516 0.843918C9.37599 0.718555 9.56426 0.578585 9.72027 0.526024C9.73462 0.521553 9.77084 0.512936 9.83027 0.506802C9.88902 0.500738 9.95981 0.498203 10.0371 0.501369C10.3637 0.515417 10.5875 0.645136 10.7492 0.891285C10.7476 0.88887 10.7508 0.895107 10.7597 0.912384C10.7738 0.939762 10.8022 0.99486 10.8482 1.08717C10.9152 1.22174 11.0059 1.40728 11.114 1.63087C11.3302 2.07771 11.6139 2.67232 11.9125 3.30607C12.212 3.94172 12.4921 4.53182 12.703 4.97159C12.8083 5.19132 12.8968 5.37443 12.9619 5.50724C12.9943 5.57344 13.0217 5.62857 13.0427 5.67004L13.0446 5.67376C13.0587 5.70155 13.0851 5.75353 13.1087 5.78942L13.1128 5.79568L13.1171 5.80182C13.1955 5.91337 13.3344 6.05183 13.4826 6.12919C13.5381 6.15812 13.5916 6.17272 13.6022 6.17561C13.6028 6.17577 13.6033 6.1759 13.6036 6.17599C13.6275 6.18272 13.6531 6.18889 13.6771 6.19433C13.7259 6.20543 13.7882 6.21806 13.86 6.23177C14.0047 6.2594 14.2037 6.29444 14.4436 6.33474C14.9243 6.41548 15.5793 6.51903 16.3142 6.62954C17.2269 6.76831 17.8766 6.87077 18.3138 6.94592C18.5328 6.98358 18.6939 7.0136 18.806 7.03726C18.9052 7.05818 18.9398 7.06909 18.9401 7.06828C18.9402 7.06806 18.9378 7.067 18.9335 7.06508C19.4121 7.27962 19.6475 7.89687 19.4021 8.41969C19.3828 8.45966 19.3448 8.52905 19.11 8.78563C18.8745 9.04286 18.475 9.45321 17.7651 10.174L17.7643 10.1748L17.7468 10.1927C16.679 11.2814 16.1342 11.837 15.8519 12.1426C15.7135 12.2926 15.6164 12.4053 15.5512 12.5031C15.4659 12.631 15.4392 12.7277 15.4206 12.7979L15.4184 12.8064L15.4185 12.8064C15.3914 12.9164 15.3917 13.0257 15.3985 13.1316C15.4054 13.2407 15.4225 13.3855 15.4504 13.5837C15.5066 13.9827 15.6143 14.6488 15.8016 15.7877C15.9188 16.5072 16.026 17.1823 16.1039 17.6896C16.1429 17.9436 16.1743 18.1542 16.1959 18.3069C16.2067 18.3835 16.2148 18.4435 16.2201 18.4863C16.2232 18.5114 16.2245 18.5249 16.2251 18.5303C16.2157 19.2225 15.5152 19.6565 14.9956 19.4423L14.8051 19.9046M14.8051 19.9046C15.6967 20.2721 16.7252 19.5289 16.7252 18.5162C16.7252 18.4141 16.5297 17.1482 16.295 15.7068C15.9196 13.4241 15.8688 13.0689 15.904 12.9259M14.8051 19.9046C14.6878 19.8556 13.6045 19.2716 12.4 18.6101C10.3 17.4545 10.2062 17.4055 9.99891 17.4055C9.79165 17.4055 9.69388 17.4545 7.59778 18.6101L15.904 12.9259M15.904 12.9259C15.9548 12.734 15.9548 12.734 18.1213 10.5249L18.1213 10.5249C19.537 9.08749 19.7481 8.85473 19.8537 8.63422C20.2135 7.87062 19.885 6.94367 19.1381 6.60883C19.0051 6.54758 18.2152 6.41282 16.3889 6.13515C14.9224 5.91464 13.7805 5.72272 13.714 5.68597L15.904 12.9259ZM4.98681 19.4446C4.98715 19.4445 4.98811 19.444 4.98974 19.4433C4.99608 19.4403 5.01266 19.4325 5.04359 19.4171C5.08486 19.3966 5.14024 19.3683 5.20892 19.3326C5.34599 19.2615 5.53027 19.1639 5.74911 19.0468C6.18647 18.8126 6.75754 18.5022 7.35638 18.1723L4.98681 19.4446Z" stroke="white"/>
</svg>

<svg width="20" height="20" fill="none" xmlns="http://www.w3.org/2000/svg"><path d="M4.035 12.783c-.043-.07-.907-.972-1.916-2C.492 9.12.265 8.878.152 8.645-.223 7.871.125 6.903.89 6.601c.133-.053 1.091-.217 2.741-.47 1.463-.22 2.585-.408 2.652-.445l-2.249 7.097Zm0 0a.59.59 0 0 1 .07.33l-.07-.33Zm-.327-6.158c.732-.11 1.381-.213 1.856-.292.238-.04.434-.075.577-.102a5.512 5.512 0 0 0 .254-.055h.001a.616.616 0 0 0 .13-.052l.001-.001c.128-.071.27-.201.354-.321l.004-.006.004-.007c.024-.035.05-.087.064-.115l.002-.004.082-.164.262-.541c.213-.444.496-1.04.798-1.679m-4.39 3.34 3.65 11.546a74.586 74.586 0 0 1 1.925-1.044c.16-.08.287-.138.397-.173a.99.99 0 0 1 .32-.05c.09 0 .188.008.32.05.11.035.236.093.395.173.323.162.882.47 1.927 1.044a233.246 233.246 0 0 0 2.14 1.16 15.193 15.193 0 0 0 .214.11l.003.001-.193.462M3.708 6.625c-.824.127-1.473.23-1.931.309-.23.039-.408.071-.536.097-.085.017-.132.028-.154.033-.017.004-.019.004-.01.001h-.003c-.472.187-.732.826-.472 1.363.022.045.062.118.333.411.268.29.725.76 1.541 1.593.506.516.975 1 1.324 1.365a45.66 45.66 0 0 1 .555.59l.046.052.001.002c.008.01.035.041.058.079l.005.008c.113.19.146.392.14.6v.003a4.31 4.31 0 0 1-.04.332l-.09.61c-.077.493-.18 1.144-.295 1.833-.113.69-.216 1.336-.291 1.823a49.487 49.487 0 0 0-.111.766l-.006.045v-.016c0 .681.683 1.123 1.215.92M3.707 6.626l1.28 12.82m3.11-16.159-.452-.213.452.213Zm0 0c.302-.64.59-1.24.812-1.692.11-.226.204-.414.273-.551l.093-.18.01-.02m0 0a.663.663 0 0 0-.004.006L8.873.561l.411.284.001-.001Zm0 0c.091-.124.28-.264.435-.317a.62.62 0 0 1 .11-.02c.059-.005.13-.008.207-.005.327.014.55.144.712.39a.147.147 0 0 0 .01.021l.09.175c.066.135.157.32.265.544.216.447.5 1.041.798 1.675a284.792 284.792 0 0 0 1.05 2.201l.08.163.003.004c.014.028.04.08.064.115l.004.007.004.006c.078.111.217.25.366.327a.624.624 0 0 0 .12.047 5.604 5.604 0 0 0 .256.056c.146.027.345.062.585.103.48.08 1.135.184 1.87.295.913.138 1.563.24 2 .316.219.038.38.068.492.091.1.021.134.032.134.031l-.007-.003c.48.215.715.832.47 1.355-.02.04-.058.109-.293.366s-.635.667-1.345 1.388l-.018.019a127.19 127.19 0 0 0-1.895 1.95c-.139.15-.236.262-.3.36a.897.897 0 0 0-.131.295l-.003.008a1.06 1.06 0 0 0-.02.326c.007.109.024.254.052.452.057.399.164 1.065.352 2.204a223.076 223.076 0 0 1 .394 2.519l.024.18.005.043c-.01.692-.71 1.127-1.23.912l-.19.463m0 0c.892.367 1.92-.376 1.92-1.389 0-.102-.195-1.368-.43-2.81-.375-2.282-.426-2.637-.391-2.78m-1.099 6.979c-.117-.05-1.2-.633-2.405-1.295-2.1-1.155-2.194-1.204-2.401-1.204-.207 0-.305.049-2.401 1.204l8.306-5.684m0 0c.05-.192.05-.192 2.217-2.401 1.416-1.438 1.627-1.67 1.733-1.89.36-.764.031-1.691-.716-2.026-.133-.061-.923-.196-2.75-.474-1.466-.22-2.608-.412-2.674-.449l2.19 7.24ZM4.987 19.445l.003-.002.054-.026.165-.084c.137-.071.321-.17.54-.286.437-.234 1.009-.545 1.607-.875l-2.37 1.273Z" stroke="#fff"/></svg>
